X:0297
M:C
L:1/8
Q:1/2=100
K:G
c2    GE EcGE|c2    GE DAFD|c2    GE (d/c/B/A/) BG|A/B/c B/c/d A2 FD:|
c2    Ec EcGE|c2    Ec DAFD|c2    Ec (d/c/B/A/) BG|A/B/c B/c/d A2 FD:|

